static/img/menus/ico-sp-func.svg

<svg width="16" height="16" viewBox="0 0 16 16" fill="none" xmlns="http://www.w3.org/2000/svg">
<path d="M5 6.09091V7H3V6.09091H5ZM6.09091 5V3C6.09091 2.39751 5.60249 1.90909 5 1.90909H3C2.39751 1.90909 1.90909 2.39751 1.90909 3V5C1.90909 5.60249 2.39751 6.09091 3 6.09091V7L2.89702 6.99734C1.87442 6.94547 1.05453 6.12558 1.00266 5.10298L1 5V3C1 1.89543 1.89543 1 3 1H5C6.10457 1 7 1.89543 7 3V5C7 6.07003 6.15969 6.94374 5.10298 6.99734L5 7V6.09091C5.60249 6.09091 6.09091 5.60249 6.09091 5Z" fill="currentColor"/>
<path d="M5 14.0909V15H3V14.0909H5ZM6.09091 13V11C6.09091 10.3975 5.60249 9.90909 5 9.90909H3C2.39751 9.90909 1.90909 10.3975 1.90909 11V13C1.90909 13.6025 2.39751 14.0909 3 14.0909V15L2.89702 14.9973C1.87442 14.9455 1.05453 14.1256 1.00266 13.103L1 13V11C1 9.89543 1.89543 9 3 9H5C6.10457 9 7 9.89543 7 11V13C7 14.07 6.15969 14.9437 5.10298 14.9973L5 15V14.0909C5.60249 14.0909 6.09091 13.6025 6.09091 13Z" fill="currentColor"/>
<path d="M13 6.09091V7H11V6.09091H13ZM14.0909 5V3C14.0909 2.39751 13.6025 1.90909 13 1.90909H11C10.3975 1.90909 9.90909 2.39751 9.90909 3V5C9.90909 5.60249 10.3975 6.09091 11 6.09091V7L10.897 6.99734C9.87442 6.94547 9.05453 6.12558 9.00266 5.10298L9 5V3C9 1.89543 9.89543 1 11 1H13C14.1046 1 15 1.89543 15 3V5C15 6.07003 14.1597 6.94374 13.103 6.99734L13 7V6.09091C13.6025 6.09091 14.0909 5.60249 14.0909 5Z" fill="currentColor"/>
<path d="M14.0909 12C14.0909 10.8452 13.1548 9.90909 12 9.90909C10.8452 9.90909 9.90909 10.8452 9.90909 12C9.90909 13.1548 10.8452 14.0909 12 14.0909V15C10.3431 15 9 13.6569 9 12C9 10.3431 10.3431 9 12 9C13.6569 9 15 10.3431 15 12C15 13.6569 13.6569 15 12 15V14.0909C13.1548 14.0909 14.0909 13.1548 14.0909 12Z" fill="currentColor"/>
</svg>

<svg xmlns="http://www.w3.org/2000/svg" width="16" height="16" fill="none" viewBox="0 0 16 16"><path fill="currentColor" d="M5 6.09V7H3v-.91zM6.09 5V3A1.09 1.09 0 0 0 5 1.91H3A1.09 1.09 0 0 0 1.91 3v2c0 .602.488 1.09 1.09 1.09V7l-.103-.003a2 2 0 0 1-1.894-1.894L1 5V3a2 2 0 0 1 2-2h2a2 2 0 0 1 2 2v2a2 2 0 0 1-1.897 1.997L5 7v-.91A1.09 1.09 0 0 0 6.09 5M5 14.09V15H3v-.91zM6.09 13v-2A1.09 1.09 0 0 0 5 9.91H3A1.09 1.09 0 0 0 1.91 11v2c0 .602.488 1.09 1.09 1.09V15l-.103-.003a2 2 0 0 1-1.894-1.894L1 13v-2a2 2 0 0 1 2-2h2a2 2 0 0 1 2 2v2a2 2 0 0 1-1.897 1.997L5 15v-.91A1.09 1.09 0 0 0 6.09 13M13 6.09V7h-2v-.91zM14.09 5V3A1.09 1.09 0 0 0 13 1.91h-2A1.09 1.09 0 0 0 9.91 3v2c0 .602.488 1.09 1.09 1.09V7l-.103-.003a2 2 0 0 1-1.894-1.894L9 5V3a2 2 0 0 1 2-2h2a2 2 0 0 1 2 2v2a2 2 0 0 1-1.897 1.997L13 7v-.91A1.09 1.09 0 0 0 14.09 5M14.09 12A2.09 2.09 0 1 0 12 14.09V15a3 3 0 1 1 0-6 3 3 0 0 1 0 6v-.91A2.09 2.09 0 0 0 14.09 12"/></svg>
